X:84
T:Polska efter Rosenlöf
T:(SvL Hälsingland 84)
R:Polska
O:Bergsjö och Gnarp, Hälsingland
S:Rosenlöf
S:Pelle Schenell
B:Svenska Låtar Hälsingland
M:3/4
L:1/8
K:G
[G,DBg]2 (d/e/)d/c/ (B/c/)B/A/|G>B dg b2|(a/b/)a/f/ d>f a2|(g/a/)g/d/ B>d [gB]2|
[G,DBg]2 (d/e/)d/c/ (B/c/)B/A/|G>B dg b2|(a/b/)a/f/ d>f af|g2 [gB]2 z2:|
|:g>f e^d eB|g>f e^d e2|{ef}g>(f e)f ga|b2 b2 z2|
b>a gf gd|b>a gf g2|a>(g f)d ef|[gB]2 [gB]2 z2:|

